X:518
T: Haoyangge
N: C1936
O: China,Henan Shangcheng
S: IV, 113]
R: Xiaodiao, Dayingtao]
M: 2/4
L: 1/16
K: G
d2gedBA2 | d2gedBA2 | dEG4A2 | dBA4G2 |
dEG4A2 | dBA4Ge |
BdABd2BA | GEG6 | BdABd2BA | GEG6 |
B3dA2B2 | e2dBA2GE | EA2BA2GE | GED6 |
dEG4A2 | dBA4GE | EA2BA2GE | GED6

@@@ Tune index: 7073
